ERK
CUT[DIE BINSCHGAUER WOLLTEN WALLFAHRTEN GEHN]
REG[Europa, Mitteleuropa, Deutschland, Bayern]
TRD[]
FKT[]
SIG[E1762]
KEY[E1762   08  G 4/4]
MEL[-5  -51111_13  322-71_0
    1  13333_35  54423_0
    1  -72222_23  44332_0
    1  -72222_23  44332_0
    -5  5_054_04  31532_0
    -5  5_054_04  31532_0
    -5  1234550_  660_550
    5  544235+13  54421_0
    -5  1234550_  660_550
    5  544235+13  54421_0 //]
BEM[]
MEL_SEM[0 5 0 0 0 0 4 0 -2 0 -3 1 0 0 4 0 0 0 0 3 0 -2 0 -3 2 -4 -1 3 0 0 0 0 2 1 0 -1 0 -2 -2 -1 3 0 0 0 0 2 1 0 -1 0 -2 -7 12 0 -2 0 -1 -4 7 -3 -2 -7 12 0 -2 0 -1 -4 7 -3 -2 -7 5 2 2 1 2 0 2 0 -2 0 0 0 -2 0 -3 2 3 5 -8 3 -2 0 -3 -2 -5 5 2 2 1 2 0 2 0 -2 0 0 0 -2 0 -3 2 3 5 -8 3 -2 0 -3 -2]
MEL_RAW[-5  -5111113  322-710
    1  1333335  544230
    1  -7222223  443320
    1  -7222223  443320
    -5  505404  315320
    -5  505404  315320
    -5  1234550  660550
    5  544235+13  544210
    -5  1234550  660550
    5  544235+13  544210]
NO_REP[-5132-710
    1354230
    1-7234320
    1-7234320
    -505404315320
    -505404315320
    -51234506050
    54235+1354210
    -51234506050
    54235+1354210]
RTM[x  xxxxx_xx  xxxxx_x
    x  xxxxx_xx  xxxxx_x
    x  xxxxx_xx  xxxxx_x
    x  xxxxx_xx  xxxxx_x
    x  x_xxx_xx  xxxxx_x
    x  x_xxx_xx  xxxxx_x
    x  xxxxxxx_  xxx_xxx
    x  xxxxxxxx  xxxxx_x
    x  xxxxxxx_  xxx_xxx
    x  xxxxxxxx  xxxxx_x]
SCL_DEG[-5-7123456+1]
SCL_SEM[4 1 2 2 1 2 2 3]

